X: 9191
T: Daly's Mill
R: polka
M: 2/4
K: Gmajor
G>B de|dB B/c/B/A/|GB de|d2 d2|
G>B de|dB B/c/B/A/|GE {F}ED/E/|1 G2 G2:|2 G2 G||
B/d/|:ed B/c/B/A/|GE {F}ED|GB/A/ GB|d2 Bd|
ed B/c/B/A/|GE {F}ED/E/|GB/A/ GE|1 G2 G2:|2 G2 D2||

